X: 7948
T: Condon's Frolics
R: jig
M: 6/8
K: Adorian
d|:eAB c2d|edc BAG|eAB c2d|ef/e/d eag|
eAB c2d|edc ~B3|GB/c/d gdB|ABA A2d:|
|:eaa efg|dec BAG|cBc dcd|e2d efg|
eaa efg|dec BAB|GB/c/d gdB|ABA A2d:|

